images/minus-icon.svg

<svg xmlns="http://www.w3.org/2000/svg" width="26" height="26" viewBox="0 0 26 26"><path d="M25.312 13.001v.947c0 .524-.423.947-.947.947h-6.629c-.524 0-.947-.423-.947-.947v-.947c0-.524.423-.947.947-.947h6.629c.524 0 .947.423.947.947zm-9.548 7.895c.05.203.058.358.026.458-.035.1-.143.153-.326.153h-3.105c-.284 0-.476-.065-.577-.191-.1-.129-.192-.33-.275-.599l-.804-2.982h-5.068l-.838 3.057c-.084.272-.192.461-.326.562-.133.1-.317.153-.551.153h-2.778c-.184 0-.309-.038-.375-.115-.068-.076-.06-.258.025-.548l4.832-15.574c.083-.238.183-.421.3-.55.116-.126.342-.191.677-.191h3.155c.35 0 .58.07.688.205.108.136.204.323.288.561l5.032 15.601zm-5.826-6.001l-1.687-6.254h-.124l-1.714 6.254h3.525z"/></svg>

<?xml version="1.0" encoding="utf-8"?>
<!-- Generator: Adobe Illustrator 17.0.0, SVG Export Plug-In . SVG Version: 6.00 Build 0)  -->
<!DOCTYPE svg PUBLIC "-//W3C//DTD SVG 1.1//EN" "http://www.w3.org/Graphics/SVG/1.1/DTD/svg11.dtd">
<svg version="1.1" id="Layer_1" xmlns="http://www.w3.org/2000/svg" xmlns:xlink="http://www.w3.org/1999/xlink" x="0px" y="0px"
	 width="26px" height="26px" viewBox="0 0 26 26" enable-background="new 0 0 26 26" xml:space="preserve">
<path d="M25.312,13.001v0.947c0,0.524-0.423,0.947-0.947,0.947h-6.629c-0.524,0-0.947-0.423-0.947-0.947v-0.947
	c0-0.524,0.423-0.947,0.947-0.947h6.629C24.889,12.054,25.312,12.477,25.312,13.001z M15.764,20.896
	c0.05,0.203,0.058,0.358,0.026,0.458c-0.035,0.1-0.143,0.153-0.326,0.153h-3.105c-0.284,0-0.476-0.065-0.577-0.191
	c-0.1-0.129-0.192-0.33-0.275-0.599l-0.804-2.982H5.635l-0.838,3.057c-0.084,0.272-0.192,0.461-0.326,0.562
	c-0.133,0.1-0.317,0.153-0.551,0.153H1.142c-0.184,0-0.309-0.038-0.375-0.115c-0.068-0.076-0.06-0.258,0.025-0.548L5.624,5.27
	c0.083-0.238,0.183-0.421,0.3-0.55C6.04,4.594,6.266,4.529,6.601,4.529h3.155c0.35,0,0.58,0.07,0.688,0.205
	c0.108,0.136,0.204,0.323,0.288,0.561L15.764,20.896z M9.938,14.895L8.251,8.641H8.127l-1.714,6.254H9.938z"/>
</svg>
